X:38
%%score 1 2
%%staffscale 1.0
T:Rogero
M:C
L:1/8
K:F
V:1 clef-treble
V:2 clef-bass octave=-1
V:1
(FG)|[CA]2[DF]2 [DB]2 (AG) & x6F2|[FA]3[GB] [FA]2[Fc]2|B2[FA]2 [CG]2[=B,F]2 & DEx6|
w:When* as the Duke of* Nor-man-dy, With glist'ring* spear and 
V:2
z2|F2D2 G2C2|F6 A2|G2 F2 E2 D2|
V:1
[EG]3[FA] [EG]2(CD) & G6x2|[CE]2C2 [A,F]2(ED) & x6 A,2|G3A G2[Gc]2 & D6 x2|[FA]2(GF) [DG]2[B,C]2 & x2C2 x4|[A,F]6||
w:shield.** Had* en-ter'd in-to* fair England,* And foil'd his* foes in field.
V:2
C6 z2|C2 A,2 D2 F,2|B,3C B,2E,2|F,2 A,2 B,2 [CE]2|[F,F]6||

